exported-svg/meh.svg

<svg height="24" viewBox="0 0 24 24" width="24" xmlns="http://www.w3.org/2000/svg"><path d="m12.5 23c-5.79898987 0-10.5-4.7010101-10.5-10.5 0-5.79898987 4.70101013-10.5 10.5-10.5 5.7989899 0 10.5 4.70101013 10.5 10.5 0 5.7989899-4.7010101 10.5-10.5 10.5zm0-1c5.2467051 0 9.5-4.2532949 9.5-9.5 0-5.24670512-4.2532949-9.5-9.5-9.5-5.24670512 0-9.5 4.25329488-9.5 9.5 0 5.2467051 4.25329488 9.5 9.5 9.5zm-4-6c-.27614237 0-.5-.2238576-.5-.5s.22385763-.5.5-.5h8c.2761424 0 .5.2238576.5.5s-.2238576.5-.5.5zm1-6c-.27614237 0-.5-.22385763-.5-.5s.22385763-.5.5-.5h.01c.27614237 0 .5.22385763.5.5s-.22385763.5-.5.5zm6 0c-.2761424 0-.5-.22385763-.5-.5s.2238576-.5.5-.5h.01c.2761424 0 .5.22385763.5.5s-.2238576.5-.5.5z"/></svg>

<?xml version="1.0" encoding="UTF-8"?>
<svg width="24px" height="24px" viewBox="0 0 24 24" version="1.1" xmlns="http://www.w3.org/2000/svg" xmlns:xlink="http://www.w3.org/1999/xlink">
    <!-- Generator: Sketch 55.2 (78181) - https://sketchapp.com -->
    <title>meh</title>
    <desc>Created with Sketch.</desc>
    <g id="meh" stroke="none" stroke-width="1" fill="none" fill-rule="evenodd">
        <path d="M12.5,23 C6.70101013,23 2,18.2989899 2,12.5 C2,6.70101013 6.70101013,2 12.5,2 C18.2989899,2 23,6.70101013 23,12.5 C23,18.2989899 18.2989899,23 12.5,23 Z M12.5,22 C17.7467051,22 22,17.7467051 22,12.5 C22,7.25329488 17.7467051,3 12.5,3 C7.25329488,3 3,7.25329488 3,12.5 C3,17.7467051 7.25329488,22 12.5,22 Z M8.5,16 C8.22385763,16 8,15.7761424 8,15.5 C8,15.2238576 8.22385763,15 8.5,15 L16.5,15 C16.7761424,15 17,15.2238576 17,15.5 C17,15.7761424 16.7761424,16 16.5,16 L8.5,16 Z M9.5,10 C9.22385763,10 9,9.77614237 9,9.5 C9,9.22385763 9.22385763,9 9.5,9 L9.51,9 C9.78614237,9 10.01,9.22385763 10.01,9.5 C10.01,9.77614237 9.78614237,10 9.51,10 L9.5,10 Z M15.5,10 C15.2238576,10 15,9.77614237 15,9.5 C15,9.22385763 15.2238576,9 15.5,9 L15.51,9 C15.7861424,9 16.01,9.22385763 16.01,9.5 C16.01,9.77614237 15.7861424,10 15.51,10 L15.5,10 Z" id="Combined-Shape" fill="#000000" fill-rule="nonzero"></path>
    </g>
</svg>
